X:22
T:The Newmarket Polka                                                           
R:polka                                                                         
Z:id:hn-polka-58                                                                
M:2/4                                                                           
L:1/8                                                                           
K:A                                                                             
E>E Ec|BA FA|E>E Ec|BA AF|E>E Ec|BA FA|E2 e>c|1 BA AF:|2 BA A>B||               
ce B>c|BA FA|ce B>c|BA AB|ce B>c|BA FA|E>E Ec|BA AB||                           
ce B>c|BA FA|ce Bc/e/|fe cB|ce B>c|BA FA|E>E Ec|BA AB||
